X: 440
T: Jerry Houlihan
C:anon.
O:Ireland
B:Francis O'Neill: "The Dance Music of Ireland" (1907) no. 440
R:Hop, slip jig
Z:Transcribed by Frank Nordberg - http://www.musicaviva.com
F:http://www.musicaviva.com/abc/tunes/ireland/oneill-1001/oneill-1001-044
0.abc
M:9/8
L:1/8
K:D
A2d FDF FDF|A2d FDF G2E|A2d FDF FDF|BAB E2F G2E::D2d AGF AGF|
D2d AGF G2E|D2d AGF AGF|BAB E2F G2E::d2d fed ecA|d2g fdf g2e|dfe fdB AGF|
BAB E2F G2E:|
|:d2f agf agf|d2f agf g2e|d2f agf agf|bgf/g/ e2f g2e::dfe/c/ dAF dAF|dfe/
c/ dAF GFE|
dfe/c/ dAF dAF|BAB E2F GFE::DFF dFF AFF|DFF dFF GFE|DFF dFF AFF|BAB E2F G
FE:|
W:
W:
W:  From Musica Viva - http://www.musicaviva.com
W:  the Internet center for free sheet music downloads.


